src/assets/tokens/ebtc.svg

<svg width="200" height="200" viewBox="0 0 200 200" fill="none" xmlns="http://www.w3.org/2000/svg">
<rect width="200" height="200" rx="100" fill="#0E0B31"/>
<circle cx="99.9825" cy="99.9835" r="92.2501" stroke="#120370" stroke-width="3.5"/>
<circle cx="99.9825" cy="99.9835" r="92.2501" stroke="#F09242" stroke-width="3.5"/>
<path d="M134.648 81.6643C133.55 70.2072 123.667 66.3638 111.167 65.1924V49.416H101.503V64.8996C98.9593 64.8996 96.3604 64.8996 93.7798 64.8996V49.416H84.1895V65.3023H64.5879V75.6429C64.5879 75.6429 71.7257 75.5148 71.6159 75.6429C72.9029 75.5014 74.1946 75.8649 75.2189 76.657C76.2431 77.4491 76.9199 78.6078 77.1065 79.889V123.375C77.079 123.827 76.9612 124.268 76.76 124.674C76.5588 125.08 76.2784 125.441 75.9352 125.736C75.5985 126.037 75.2044 126.266 74.7767 126.411C74.3489 126.556 73.8963 126.612 73.4461 126.578C73.5742 126.688 66.4181 126.578 66.4181 126.578L64.5879 138.126H84.0064V154.269H93.67V138.364H101.393V154.196H111.075V138.236C127.401 137.248 138.785 133.221 140.212 117.939C141.365 105.64 135.582 100.149 126.339 97.9349C131.958 95.1713 135.435 90.0467 134.648 81.6643ZM121.105 116.036C121.105 128.042 100.533 126.669 93.9811 126.669V105.366C100.533 105.384 121.105 103.499 121.105 116.036ZM116.621 86.0202C116.621 97.0015 99.4534 95.6655 93.9994 95.6655V76.3018C99.4534 76.3018 116.621 74.5814 116.621 86.0202Z" fill="url(#paint0_linear_14653_165)"/>
<defs>
<linearGradient id="paint0_linear_14653_165" x1="69.8379" y1="118.302" x2="139.342" y2="100.037" gradientUnits="userSpaceOnUse">
<stop stop-color="#29BCFA"/>
<stop offset="0.43" stop-color="#6464E4"/>
<stop offset="1" stop-color="#B45AFA"/>
</linearGradient>
</defs>
</svg>

<svg xmlns="http://www.w3.org/2000/svg" fill="none" viewBox="0 0 200 200"><rect width="200" height="200" fill="#0E0B31" rx="100"/><circle cx="99.983" cy="99.984" r="92.25" stroke="#120370" stroke-width="3.5"/><circle cx="99.983" cy="99.984" r="92.25" stroke="#F09242" stroke-width="3.5"/><path fill="url(#a)" d="M134.648 81.664c-1.098-11.457-10.981-15.3-23.481-16.472V49.416h-9.664V64.9H93.78V49.416h-9.59v15.886H64.587v10.34s7.138-.127 7.028 0a4.997 4.997 0 0 1 5.49 4.247v43.486a3.4 3.4 0 0 1-1.17 2.361 3.35 3.35 0 0 1-2.49.842c.128.11-7.028 0-7.028 0l-1.83 11.548h19.418v16.143h9.664v-15.905h7.723v15.832h9.682v-15.96c16.326-.988 27.71-5.015 29.137-20.297 1.153-12.299-4.63-17.79-13.873-20.004 5.619-2.764 9.096-7.888 8.309-16.27m-13.543 34.372c0 12.006-20.572 10.633-27.124 10.633v-21.303c6.552.018 27.124-1.867 27.124 10.67m-4.484-30.016c0 10.981-17.168 9.645-22.622 9.645V76.303c5.454 0 22.622-1.72 22.622 9.718"/><defs><linearGradient id="a" x1="69.838" x2="139.342" y1="118.302" y2="100.037" gradientUnits="userSpaceOnUse"><stop stop-color="#29BCFA"/><stop offset=".43" stop-color="#6464E4"/><stop offset="1" stop-color="#B45AFA"/></linearGradient></defs></svg>
